X:1
T:Faith Discerns a Country
T:Faith Discerns a Country
T:Benjamin Newton Hultsman, Jr.
T:Jennie Wilson, 1904
T:Public Domain Courtesy of the Cyber Hymnal™
T:Public Domain Courtesy of the Cyber Hymnal™
C:Benjamin Newton Hultsman, Jr.
Z:Public Domain
Z:Courtesy of the Cyber Hymnal™
%%score ( 1 2 ) ( 3 4 )
L:1/8
Q:1/4=95
M:4/4
K:C
V:1 treble 
V:2 treble 
V:3 bass 
V:4 bass 
V:1
 [EG]>[EG] | [Ec]2 [Ec]2 [^DB]2 [DA]2 | [EG]2 [FA]>[EG] [CE]2 C>[CE] | %3
w: 1.~Faith dis-|cerns a coun- try|bright- er than day, It is|
w: 2.~Just be-|yond the ri- ver|flow- ing so still Through the|
w: 3.~In the|light that shin- eth|there from the face Of the|
 [EG]>[EG] [EG]>[CG] [DF]2 [CE]>[B,D] | [CE]6 [EG]>[EG] | [Ec]2 [Ec]2 [^DB]2 [DA]2 | %6
w: free from earth- ly sor- row and|care; With my|jour- ney end- ed|
w: sha- dows veil- ing time’s sol- emn|shore, Lies the|land e- ter- nal|
w: bless- èd Sav- ior I shall a-|bide; Through the|end- less ag- es|
 [EG]>[FA] [EG]>[DF] [CE]2 [EG]>[EG] | [D^F]>[D^E] [DF]>[DA] [Fc]2 [FB]>[FA] | G6 || %9
w: and my bat- tle won, I shall|rest in man- sions built o- ver|there.|
w: where re- deemed ones dwell, And where|blight of e- vil comes ne- ver-|more.|
w: saved by His shed blood, I shall|in His pre- sence be sa- tis-|fied.|
"^Refrain" [FA]>[FB] | [Ec]2 [^DB]>[DA] [EG]2 [CE]>[CE] | [^CA]2 [EG]>[CE] [DF]2 [B,D]>[=CE] | %12
w: |||
w: ~O- ver|there! O- ver there! When my|work here is done, I shall|
w: |||
 [B,F]2 [FB]>[FA] [FG]2 ([Fd][Ge]) | e4 !fermata![FB]2 [FA]>[FB] | %14
w: ||
w: go to that land so *|beau- ti- ful and|
w: ||
 [Ec]2 [^DB]>[DA] [EG]2 [D^F]>[EG] | [FA]2 [F^G]>[FA] [^Fd]2 [Fd]>[Fc] | %16
w: ||
w: fair; O- ver there! O- ver|there! O I long for the|
w: ||
 [FB]2 [FB]>[FA] [FG]2 [Fd]>[Ge] | c6 |] %18
w: ||
w: joy And the peace of the|home|
w: ||
V:2
 x2 | x8 | x6 C3/2 x/ | x8 | x8 | x8 | x8 | x8 | G6 || x2 | x8 | x8 | x8 | E>F GE x4 | x8 | x8 | %16
 x8 | (E2 G>F E2) |] %18
V:3
 [C,C]>[C,C] | [C,G,]2 [C,G,]2 [C,^F,]2 [C,F,]2 | [C,G,]2 [C,C]>[C,C] [C,G,]2 [C,E,]>[C,G,] | %3
 [C,C]>[C,C] [C,C]>[E,C] [G,B,]2 [G,,G,]>[G,,G,] | [C,G,]6 [C,C]>[C,C] | %5
 [C,G,]2 [C,G,]2 [C,^F,]2 [C,F,]2 | [C,G,]>[C,C] [C,C]>[C,G,] [C,G,]2 [C,C]>[C,C] | %7
 [D,A,]>[D,^G,] [D,A,]>[D,^F,] [D,A,]2 [D,D]>[D,C] | [G,,B,]6 || G,>G, | %10
 [C,G,]2 [C,^F,]>[C,F,] [C,G,]2 [C,G,]>[C,G,] | [A,,A,]2 [A,,A,]>[A,,A,] [D,A,]2 [F,G,]>[E,G,] | %12
 [D,G,]2 [G,,G,]>[G,,C] [G,,B,]2 [G,,B,]2 | [C,C]>[D,G,] [E,G,][C,C] !fermata![G,D]2 G,>G, | %14
 [C,G,]2 [C,^F,]>[C,F,] [C,G,]2 [C,C]>[C,_B,] | [F,A,]2 [F,B,]>[F,C] [D,D]2 [D,A,]>[D,D] | %16
 [G,D]2 [G,D]>[G,C] [G,B,]2 [G,B,]>[G,B,] | (C2 B,>A, G,2) |] %18
V:4
 x2 | x8 | x8 | x8 | x8 | x8 | x8 | x8 | x6 || G,>G, | x8 | x8 | x8 | x6 G,>G, | x8 | x8 | x8 | %17
 C,6 |] %18

